X:29
T:Britches Full Of Stitches, The
R:polka
S:https://thesession.org/tunes/1075
M:2/4
L:1/8
Z:Paddy
K:Gmajor
|:d>e fd|ed fd|d>e fd|edB2|d>e fd|ed fa|d>e dB|BA A2:|
|:~a2af|ed ef|~a2af|edb2|~a2af|ed ef|d>e dB|BA A2:|

